img/why/5.svg

<svg width="30" height="30" viewBox="0 0 30 30" fill="none" xmlns="http://www.w3.org/2000/svg">
<g clip-path="url(#clip0_30_18675)">
<path d="M29.9646 2.23969C29.8996 1.04801 28.9519 0.100369 27.7602 0.0353297C25.3556 -0.0960375 20.6503 0.0317556 16.151 2.35892C13.8574 3.54533 11.4316 5.55679 9.49571 7.87758C9.47186 7.90617 9.44866 7.93494 9.42498 7.96359L5.03163 8.30297C4.30846 8.35886 3.66434 8.73791 3.26438 9.34283L0.267075 13.8763C-0.0362647 14.3351 -0.0844873 14.9093 0.137993 15.4122C0.360532 15.9152 0.817798 16.2657 1.36125 16.3499L5.06268 16.9232C5.04961 16.9951 5.03649 17.067 5.02448 17.139C4.90125 17.8761 5.14547 18.6339 5.67786 19.1662L10.8336 24.3221C11.275 24.7635 11.8714 25.0068 12.4826 25.0068C12.6084 25.0068 12.735 24.9964 12.861 24.9754C12.9329 24.9634 13.0048 24.9503 13.0768 24.9372L13.6501 28.6387C13.7343 29.1821 14.0848 29.6395 14.5876 29.8619C14.7969 29.9545 15.0183 30.0002 15.2387 30.0002C15.5483 30.0002 15.8556 29.9101 16.1235 29.7329L20.6571 26.7356C21.262 26.3355 21.641 25.6914 21.6968 24.9683L22.0362 20.575C22.0648 20.5513 22.0937 20.5281 22.1222 20.5043C24.4431 18.5684 26.4546 16.1426 27.641 13.8489C29.9682 9.34945 30.0958 4.64408 29.9646 2.23969ZM19.6876 25.2692L15.351 28.1364L14.7923 24.529C16.6251 23.9902 18.4382 23.1271 20.1655 21.9708L19.9444 24.8328C19.9306 25.0114 19.837 25.1705 19.6876 25.2692ZM12.0766 23.0791L6.92075 17.9233C6.7892 17.7917 6.72838 17.6068 6.75821 17.4288C6.91149 16.5122 7.14967 15.6397 7.44452 14.8177L15.1805 22.5537C14.1933 22.9073 13.3091 23.1183 12.5711 23.2417C12.3928 23.2713 12.2081 23.2107 12.0766 23.0791ZM5.16704 10.0556L8.02899 9.83449C6.8727 11.5618 6.00961 13.3748 5.47073 15.2077L1.86346 14.649L4.73069 10.3123C4.82948 10.1629 4.98856 10.0693 5.16704 10.0556ZM20.9964 19.1544C19.5765 20.3387 18.1982 21.1953 16.9278 21.8152L8.18438 13.0718C8.99637 11.4134 9.98737 10.0324 10.8455 9.00357C12.637 6.85582 14.8652 5.00303 16.9587 3.92021C21.088 1.78429 25.4387 1.66927 27.6645 1.79045C27.9591 1.8065 28.1934 2.04082 28.2095 2.33549C28.3308 4.56135 28.2156 8.91193 26.0797 13.0413C24.9969 15.1348 23.1441 17.3628 20.9964 19.1544Z" fill="white"/>
<path d="M20.5499 13.8425C21.675 13.8424 22.8006 13.4141 23.6572 12.5575C24.4873 11.7275 24.9443 10.6239 24.9443 9.4502C24.9443 8.27645 24.4872 7.17289 23.6572 6.34291C21.9438 4.62945 19.1559 4.62957 17.4426 6.34291C16.6126 7.17289 16.1555 8.27645 16.1555 9.4502C16.1555 10.6239 16.6127 11.7275 17.4426 12.5575C18.2994 13.4142 19.4244 13.8426 20.5499 13.8425ZM18.6855 7.5858C19.1995 7.07176 19.8746 6.81477 20.5498 6.81477C21.225 6.81477 21.9002 7.07176 22.4142 7.5858C22.9122 8.08379 23.1864 8.7459 23.1864 9.45014C23.1864 10.1544 22.9122 10.8165 22.4142 11.3145C21.3862 12.3426 19.7134 12.3425 18.6854 11.3145C18.1874 10.8165 17.9132 10.1544 17.9132 9.4502C17.9132 8.74596 18.1875 8.08379 18.6855 7.5858Z" fill="white"/>
<path d="M0.896699 24.7226C1.12164 24.7226 1.34658 24.6368 1.51814 24.4651L4.38766 21.5956C4.7309 21.2524 4.7309 20.6959 4.38766 20.3526C4.04447 20.0094 3.48795 20.0094 3.14471 20.3526L0.275254 23.2222C-0.0679883 23.5654 -0.0679883 24.1219 0.275254 24.4651C0.446816 24.6367 0.671758 24.7226 0.896699 24.7226Z" fill="white"/>
<path d="M7.01722 22.9825C6.67403 22.6393 6.11751 22.6393 5.77427 22.9825L0.257432 28.4994C-0.0858105 28.8427 -0.0858105 29.3991 0.257432 29.7424C0.429053 29.914 0.653936 29.9998 0.878877 29.9998C1.10382 29.9998 1.32876 29.914 1.50032 29.7423L7.01716 24.2255C7.36046 23.8822 7.36046 23.3258 7.01722 22.9825Z" fill="white"/>
<path d="M8.40404 25.6124L5.53453 28.4819C5.19129 28.8252 5.19129 29.3816 5.53453 29.7249C5.70615 29.8965 5.93109 29.9823 6.15597 29.9823C6.38086 29.9823 6.60586 29.8966 6.77742 29.7249L9.64693 26.8554C9.99017 26.5121 9.99017 25.9557 9.64693 25.6124C9.30374 25.2692 8.74722 25.2692 8.40404 25.6124Z" fill="white"/>
</g>
<defs>
<clipPath id="clip0_30_18675">
<rect width="30" height="30" fill="white"/>
</clipPath>
</defs>
</svg>

<svg width="30" height="30" viewBox="0 0 30 30" fill="none" xmlns="http://www.w3.org/2000/svg"><g clip-path="url(#clip0_30_18675)" fill="#fff"><path d="M29.965 2.24A2.332 2.332 0 0027.76.035C25.356-.096 20.65.032 16.151 2.36c-2.294 1.186-4.72 3.198-6.655 5.519l-.071.086-4.393.339a2.32 2.32 0 00-1.768 1.04L.267 13.876a1.6 1.6 0 00-.129 1.536 1.6 1.6 0 001.223.938l3.702.573-.039.216a2.33 2.33 0 00.654 2.027l5.156 5.156a2.336 2.336 0 002.027.653l.216-.038.573 3.702a1.607 1.607 0 002.473 1.094l4.534-2.997a2.32 2.32 0 001.04-1.768l.34-4.393.085-.07c2.321-1.937 4.333-4.362 5.519-6.656 2.327-4.5 2.455-9.205 2.324-11.61zM19.688 25.27l-4.337 2.866-.559-3.607c1.833-.539 3.646-1.402 5.374-2.558l-.222 2.862a.573.573 0 01-.256.436zm-7.611-2.19L6.92 17.922a.57.57 0 01-.163-.494c.153-.917.392-1.79.687-2.611l7.736 7.736c-.988.353-1.872.564-2.61.688a.57.57 0 01-.494-.163zm-6.91-13.024l2.862-.222c-1.156 1.728-2.02 3.54-2.558 5.374l-3.608-.559 2.868-4.337a.572.572 0 01.436-.256zm15.83 9.098a20.155 20.155 0 01-4.07 2.661l-8.743-8.743a20.504 20.504 0 012.662-4.068c1.791-2.148 4.02-4.001 6.113-5.084 4.129-2.136 8.48-2.25 10.706-2.13.294.016.528.25.544.545.122 2.226.007 6.577-2.13 10.706-1.082 2.094-2.935 4.322-5.083 6.113z"/><path d="M20.55 13.842a4.38 4.38 0 003.107-1.285 4.365 4.365 0 001.287-3.107 4.366 4.366 0 00-1.287-3.107 4.4 4.4 0 00-6.214 0 4.366 4.366 0 00-1.288 3.107c0 1.174.458 2.277 1.288 3.107a4.38 4.38 0 003.107 1.285zm-1.864-6.256a2.628 2.628 0 011.864-.771c.675 0 1.35.257 1.864.77a2.62 2.62 0 01.772 1.865 2.62 2.62 0 01-.772 1.865 2.64 2.64 0 01-3.729 0 2.62 2.62 0 01-.772-1.865c0-.704.274-1.366.773-1.864zM.897 24.723c.225 0 .45-.086.621-.258l2.87-2.87a.879.879 0 00-1.243-1.242l-2.87 2.87a.879.879 0 00.622 1.5zm6.12-1.74a.879.879 0 00-1.243 0L.257 28.498A.879.879 0 001.5 29.742l5.517-5.517a.879.879 0 000-1.242zm1.387 2.629l-2.87 2.87a.879.879 0 001.243 1.243l2.87-2.87a.879.879 0 00-1.243-1.243z"/></g><defs><clipPath id="clip0_30_18675"><path fill="#fff" d="M0 0h30v30H0z"/></clipPath></defs></svg>
